assets/icons/svg/computer.svg

<svg width="16" height="16" viewBox="0 0 16 16" xmlns="http://www.w3.org/2000/svg">
<path d="M13.4001 3H2.59985C2.2688 3 2 3.2688 2 3.60059V11.0405C2 11.3716 2.2688 11.6404 2.59985 11.6404H5.36035V13.0803H4.40015V13.5601H11.5999V13.0803H10.6396V11.6404H13.4001C13.7312 11.6404 14 11.3716 14 11.0405V3.60059C14 3.2688 13.7312 3 13.4001 3ZM10.1599 13.0803H5.84009V11.6404H10.1599V13.0803ZM13.5203 11.0405C13.5203 11.1064 13.4661 11.1599 13.4001 11.1599H2.59985C2.53394 11.1599 2.47974 11.1064 2.47974 11.0405V9.71997H13.5203V11.0405ZM13.5203 9.24023H2.47974V3.60059C2.47974 3.53394 2.53394 3.48047 2.59985 3.48047H13.4001C13.4661 3.48047 13.5203 3.53394 13.5203 3.60059V9.24023Z" />
</svg>

<svg xmlns="http://www.w3.org/2000/svg" width="16" height="16" viewBox="0 0 16 16">
  <path d="M13.4 3H2.6a.6.6 0 0 0-.6.6v7.44a.6.6 0 0 0 .6.6h2.76v1.44H4.4v.48h7.2v-.48h-.96v-1.44h2.76a.6.6 0 0 0 .6-.6V3.6a.6.6 0 0 0-.6-.6Zm-3.24 10.08H5.84v-1.44h4.32v1.44Zm3.36-2.04a.12.12 0 0 1-.12.12H2.6a.12.12 0 0 1-.12-.12V9.72h11.04v1.32Zm0-1.8H2.48V3.6a.12.12 0 0 1 .12-.12h10.8a.12.12 0 0 1 .12.12v5.64Z"/>
</svg>
